X:1
T:Some Heart Has Gone This Way Before
T:John Robson Sweney
T:Some Heart Has Gone This Way Before
T:Public Domain
T:Public Domain
T:Public Domain
C:John Robson Sweney
Z:Public Domain
%%score ( 1 2 ) ( 3 4 )
L:1/8
M:4/4
K:Ab
V:1 treble 
V:2 treble 
V:3 bass 
V:4 bass 
V:1
 [CE]2 | [CE]3 [CE] [DF][CE][=B,=D][CE] | [CA]6 [EA]2 | [EA]3 [EG] [EG][EA][EB]=B | [Ec]6 [Ec]2 | %5
w: 1.~Tho’|rough may be thy path, and|long, Re-|mem- ber! that with grief as|sore, And|
w: 2.~Tho’|dark may be the gath- ’ring|night; Tho’|loud and long the storm may|roar; Take|
w: 3.~Some|heart has gone this way be-|fore, Some|feet have scaled this diz- zy|height; Some|
w: 4.~So|thou, dear pil- grim, too, canst|go; Some|day thy tri- als will be|o’er; For|
 [Ee]3 [Ec] [Ec][EB][EA][CE] | [DF]6 [DB]2 | [CA]3 [Ec] [Ec][DB][DF][DG] | [CA]4- [CA]3/2 || %9
w: bur- dens larg- er far than|thine, Some|heart has gone this way be-|fore. *|
w: cour- age! thou art not the|first, Some|heart has gone this way be-|fore. *|
w: yearn- ing eyes have pierced the|gloom, And|seen the dawn of Heav- en’s|light. *|
w: un- to rest and peace be-|yond, Some|heart has gone this way be-|fore. *|
"^Refrain" A<G A/ | (z3/2 D/ D>D [DB]>)d A>B | z3/2 E/ E>E [Ec]>c B>c | z3/2 G/ G>G [Gd]>d c>d | %13
w: ||||
w: Trust then in|* * * * Christ! His arm|* * * * guide * Each|* * * * ful * one|
w: ||||
w: ||||
 z3/2 A/ A>A [Ae]>e e>e | z3/2 _G/ G>G [Ge]>e d>c | z3/2 D/ D>D [DF]>d A>B | %16
w: |||
w: * * * * Jor- dan’s tide;|* * * * on! * the|* * * * will soon be|
w: |||
w: |||
 z3/2 E/ E>E [Ec]>[CA] [DB]>[CA] | C>C D>D [CA]2 |] %18
w: ||
w: * * * * And vic- to-||
w: ||
w: ||
V:2
 x2 | x8 | x8 | x8 | x8 | x8 | x8 | x8 | x11/2 || x5/2 | B4- x4 | c4- x4 | d4- x4 | e4- x4 | %14
w: ||||||||||||||
w: ||||||||||will|faith-|thro’|Hope|
 e4- x4 | F4- x4 | c4- x4 | A4- x2 |] %18
w: ||||
w: race|past|ry|will|
V:3
 [A,,A,]2 | [A,,A,]3 [A,,A,] [A,,A,][A,,A,][A,,A,][A,,A,] | [A,,E,]6 [A,C]2 | %3
w: ~|~ ~ ~ ~ ~ ~|~ ~|
 [E,C]3 [E,B,] [E,B,][E,C][E,G,][E,G,] | A,6 A,2 | [A,C]3 [A,,A,] [A,,A,][B,,F,][C,A,][A,,A,] | %6
w: ~ ~ ~ ~ ~ ~|~ ~|~ ~ ~ ~ ~ ~|
 [D,A,]6 [D,F,]2 | E,3 [E,A,] [E,A,][E,G,][D,B,][D,B,] | [A,,A,]4- [A,,A,]3/2 || z/ z2 | %10
w: ~ ~|~ ~ ~ ~ ~ Trust|in *||
 z3/2 [E,G,]/ [E,G,]>[E,G,] [E,G,]3/2 z/ z2 | z3/2 [A,,A,]/ [A,,A,]>[A,,A,] [A,,A,]3/2 z/ z2 | %12
w: Christ! His arm will|guide Each faith- ful|
 z3/2 [E,B,]/ [E,B,]>[E,B,] [E,B,]3/2 z/ z2 | z3/2 [A,C]/ [A,C]>[A,C] [A,C]3/2 z/ z2 | %14
w: one thro’ Jor- dan’s|tide! Hope on! the|
 z3/2 [C,A,]/ [C,A,]>[C,A,] [C,A,]3/2 z/ z2 | z3/2 [D,A,]/ [D,A,]>[D,A,] [D,A,]3/2 z/ z2 | %16
w: race will soon be|past, And vic- to-|
 z3/2 [A,,A,]/ [A,,A,]>[A,,A,] [A,,A,]>E, [E,G,]>E, | [A,,E,]>[A,,E,] [A,,F,]>[A,,F,] [A,,E,]2 |] %18
w: ry ~ ~ ~ ~ will come||
V:4
 x2 | x8 | x8 | x8 | A,6 A,2 | x8 | x8 | E,3 x5 | x11/2 || x5/2 | x8 | x8 | x8 | x8 | x8 | x8 | %16
w: ||||~ ~|||then|||||||||
 x11/2 E,/ x E,/ x/ | x6 |] %18
w: at last.||

